IMB-X-Files/The-Ambassadors-Assets/661569e278fb8e8fab3ab485_﹟78.svg

<svg fill="none" height="105" viewBox="0 0 104 105" width="104" xmlns="http://www.w3.org/2000/svg"><path d="m52.0089 8.68237 37.5277 21.66663v43.3334l-37.5277 21.6666m0-86.66663-37.5278 21.66663v43.3334l37.5278 21.6666m0-86.66663-.043 35.91993m.043 50.7467-.0944-43.3499m.0514-7.3968 37.5278 21.6666-37.5278 21.6667-37.5277-21.6667zm-.0514 7.3968-37.5278-21.6667m37.5278 21.6667 37.5278-21.6667m-37.4764 5.8774 37.5278 21.6667-37.5278 21.6666-37.5277-21.6666zm0-8.952 37.5278 21.6667-37.5278 21.6666-37.5277-21.6666zm0-9.3438 37.5278 21.6667-37.5278 21.6667-37.5277-21.6667z" stroke="#fce48f" stroke-linecap="round" stroke-linejoin="round"/></svg>

<svg width="104" height="105" viewBox="0 0 104 105" fill="none" xmlns="http://www.w3.org/2000/svg">
    <path
        d="M52.0089 8.68237L89.5366 30.349V73.6824L52.0089 95.349M52.0089 8.68237L14.4811 30.349V73.6824L52.0089 95.349M52.0089 8.68237L51.9659 44.6023M52.0089 95.349L51.9145 51.9991M51.9659 44.6023L89.4937 66.2689L51.9659 87.9356L14.4382 66.2689L51.9659 44.6023ZM51.9145 51.9991L14.3867 30.3324M51.9145 51.9991L89.4423 30.3324M51.9659 36.2098L89.4937 57.8765L51.9659 79.5431L14.4382 57.8765L51.9659 36.2098ZM51.9659 27.2578L89.4937 48.9245L51.9659 70.5911L14.4382 48.9245L51.9659 27.2578ZM51.9659 17.914L89.4937 39.5807L51.9659 61.2474L14.4382 39.5807L51.9659 17.914Z"
        stroke="#FCE48F" stroke-linecap="round" stroke-linejoin="round" />
</svg>
